app/themes/uggwc_pro/assets/images/thema/Marketing.svg

<svg width="16" height="16" fill="none" xmlns="http://www.w3.org/2000/svg"><path d="M10.4 10h1.2c.2 0 .4-.2.4-.4V5.4c0-.2-.2-.4-.4-.4h-1.2c-.2 0-.4.2-.4.4v4.2c0 .2.2.4.4.4zm3 0h1.2c.2 0 .4-.2.4-.4V2.4c0-.2-.2-.4-.4-.4h-1.2c-.2 0-.4.2-.4.4v7.2c0 .2.2.4.4.4zm-9 0h1.2c.2 0 .4-.2.4-.4V7.4c0-.2-.2-.4-.4-.4H4.4c-.2 0-.4.2-.4.4v2.2c0 .2.2.4.4.4zm3 0h1.2c.2 0 .4-.2.4-.4V3.4c0-.2-.2-.4-.4-.4H7.4c-.2 0-.4.2-.4.4v6.2c0 .2.2.4.4.4zm8.1 2H2V2.5a.5.5 0 0 0-.5-.5h-1a.5.5 0 0 0-.5.5V13a1 1 0 0 0 1 1h14.5a.5.5 0 0 0 .5-.5v-1a.5.5 0 0 0-.5-.5z" fill="#6E6CFF"/></svg>

<svg width="16" height="16" viewBox="0 0 16 16" fill="none" xmlns="http://www.w3.org/2000/svg">
<path d="M10.4 10H11.6C11.8 10 12 9.8 12 9.6V5.4C12 5.2 11.8 5 11.6 5H10.4C10.2 5 10 5.2 10 5.4V9.6C10 9.8 10.2 10 10.4 10ZM13.4 10H14.6C14.8 10 15 9.8 15 9.6V2.4C15 2.2 14.8 2 14.6 2H13.4C13.2 2 13 2.2 13 2.4V9.6C13 9.8 13.2 10 13.4 10ZM4.4 10H5.6C5.8 10 6 9.8 6 9.6V7.4C6 7.2 5.8 7 5.6 7H4.4C4.2 7 4 7.2 4 7.4V9.6C4 9.8 4.2 10 4.4 10ZM7.4 10H8.6C8.8 10 9 9.8 9 9.6V3.4C9 3.2 8.8 3 8.6 3H7.4C7.2 3 7 3.2 7 3.4V9.6C7 9.8 7.2 10 7.4 10ZM15.5 12H2V2.5C2 2.22375 1.77625 2 1.5 2H0.5C0.22375 2 0 2.22375 0 2.5V13C0 13.5522 0.447812 14 1 14H15.5C15.7762 14 16 13.7762 16 13.5V12.5C16 12.2238 15.7762 12 15.5 12Z" fill="#6E6CFF"/>
</svg>
